X:10
T:Some G clefs...
T:Which clefs are supported by your sheet music generator?
C:Eric Conrad
M:4/4
L:1/4
K:D
W:Note the locations of the F-sharp and C-sharp in the key signature.
W:It should move in three of the examples.
DEFG | defg |
T:G clef line 2
K:D clef=G
DEFG | defg | 
T:G clef somewhere else - line 4
K:D clef=G4
DEFG | defg | 
T:G clef ottava
T:This doesn't change the pitches or the placement
K:D clef=G-8
DEFG | defg |
T:G clef ottava
T:This changes the pitches and the placement
K:D octave=-1 clef=G-8
DEFG | defg |
T:G clef ottava (octave down)
T:Pitches and placement were changed by the octave=-1 parameter above
K:D clef=G-8
DEFG | defg |
T:Movable G clef ottava
T:Pitches and placement were changed by the octave=-1 parameter above
T:But moving the clef seems to reset the octave
K:D clef=G4-8
DEFG | defg |
T:Movable G clef ottava
T:Pitches and placement are now back to normal (but with G on line 4)
K:D octave=0 clef=G4-8
DEFG | defg |


